X: 1991
T: Woodland Waltz
B: australian traditional tunes wiki
M:3/4
L:1/4
R: Mazurka
Q: 1/4=100
K:D
V:1 
A/>G/|"D"F/>A/ dd|A/>d/ ff|"A"e/>f/ g/>e/ c/>e/|"D" d/>f/A A/>G/|
"D"F/>A/ dd|A/>d/ ff|"A"e/>f/ g/>e/ c/>e/|"D" d2:|
|:e/>d/|"A"c/>e/ ag|"D"f/>a/ dc |"A"B/>c/ d/>f/ g/>e/|"D" d "A"c A/>G/|
"D"F/>A/dd|A/>d/ ff|"A"e/>f/ g/>e/ c/>e/|"D"d2:|
% abcbook-tune_id 6342d5be0ff6eb534eac27b1


% abcbook-boost 0
% abcbook-tablature 
% abcbook-transpose 
% abcbook-lastupdated 1665324492892
% abcbook-soundfonts 
% abcbook-repeats 1
% NFF Book 2022
% Bush Traditions recording played by Ian Hayden

